packages/core/assets/Icons/home_outlined.svg

<svg viewBox="0 0 20 20" fill="none" xmlns="http://www.w3.org/2000/svg">
<path d="M5.00004 15.8334H7.50004V11.6667C7.50004 11.4306 7.5799 11.2327 7.73962 11.0729C7.89935 10.9132 8.09726 10.8334 8.33337 10.8334H11.6667C11.9028 10.8334 12.1007 10.9132 12.2605 11.0729C12.4202 11.2327 12.5 11.4306 12.5 11.6667V15.8334H15V8.33335L10 4.58335L5.00004 8.33335V15.8334ZM3.33337 15.8334V8.33335C3.33337 8.06946 3.3924 7.81946 3.51046 7.58335C3.62851 7.34724 3.79171 7.1528 4.00004 7.00002L9.00004 3.25002C9.29171 3.0278 9.62504 2.91669 10 2.91669C10.375 2.91669 10.7084 3.0278 11 3.25002L16 7.00002C16.2084 7.1528 16.3716 7.34724 16.4896 7.58335C16.6077 7.81946 16.6667 8.06946 16.6667 8.33335V15.8334C16.6667 16.2917 16.5035 16.684 16.1771 17.0104C15.8507 17.3368 15.4584 17.5 15 17.5H11.6667C11.4306 17.5 11.2327 17.4202 11.073 17.2604C10.9132 17.1007 10.8334 16.9028 10.8334 16.6667V12.5H9.16671V16.6667C9.16671 16.9028 9.08685 17.1007 8.92712 17.2604C8.7674 17.4202 8.56948 17.5 8.33337 17.5H5.00004C4.54171 17.5 4.14935 17.3368 3.82296 17.0104C3.49657 16.684 3.33337 16.2917 3.33337 15.8334Z" fill="currentColor"/>
</svg>

<svg xmlns="http://www.w3.org/2000/svg" width="20" height="20" fill="none" viewBox="0 0 20 20">
  <path fill="#201F1F" d="M5 15.833h2.5v-4.166c0-.236.08-.434.24-.594.16-.16.357-.24.593-.24h3.334c.236 0 .434.08.594.24.16.16.239.358.239.594v4.166H15v-7.5l-5-3.75-5 3.75v7.5Zm-1.667 0v-7.5A1.655 1.655 0 0 1 4 7l5-3.75a1.606 1.606 0 0 1 1-.333c.375 0 .708.11 1 .333L16 7a1.654 1.654 0 0 1 .667 1.333v7.5c0 .459-.164.851-.49 1.177-.326.327-.719.49-1.177.49h-3.333a.806.806 0 0 1-.594-.24.806.806 0 0 1-.24-.593V12.5H9.167v4.167c0 .236-.08.434-.24.593a.806.806 0 0 1-.594.24H5c-.458 0-.85-.163-1.177-.49a1.605 1.605 0 0 1-.49-1.177Z"/>
</svg>
